papirus/22x22/apps/preferences-desktop-theme.svg

<svg height="22" viewBox="0 0 22 22" width="22" xmlns="http://www.w3.org/2000/svg"><g transform="translate(-1 -1)"><path d="m3 3c-.554 0-1 .446-1 1v1 14h20v-14-1c0-.554-.446-1-1-1z" fill="#4ab3e4"/><path d="m3 21c-.554 0-1-.446-1-1v-1h20v1c0 .554-.446 1-1 1z" fill="#4d4d4d"/><path d="m3 3c-.554 0-1 .446-1 1v .5c0-.554.446-1 1-1h18c .554 0 1 .446 1 1v-.5c0-.554-.446-1-1-1z" fill="#fff" opacity=".1"/><path d="m2 19.5v.5c0 .554.446 1 1 1h18c .554 0 1-.446 1-1v-.5c0 .554-.446 1-1 1h-18c-.554 0-1-.446-1-1z" opacity=".3"/><rect height="6" opacity=".2" rx=".5" width="8" x="8" y="9.5"/><path d="m8 10v4.5c0 .277.223.5.5.5h7c .277 0 .5-.223.5-.5v-4.5z" fill="#fff"/><path d="m8.5 9h7c .277 0 .5.223.5.5v.5h-8v-.5c0-.277.223-.5.5-.5z" fill="#4d4d4d"/><g opacity=".2" transform="translate(-1 -1.5)"><rect height="2" opacity="1" rx=".25" width="2" x="4" y="6.0000005"/><rect height="2" opacity="1" rx=".25" width="2" x="4" y="9"/><rect height="2" opacity="1" rx=".25" width="2" x="4" y="12"/><rect height="2" opacity="1" rx=".25" width="2" x="4" y="15"/></g><rect fill="#fff" height="2" rx=".25" width="2" x="3" y="4.0000019"/><rect fill="#fff" height="2" rx=".25" width="2" x="3" y="6.9999995"/><rect fill="#fff" height="2" rx=".25" width="2" x="3" y="9.9999943"/><rect fill="#fff" height="2" rx=".25" width="2" x="3" y="12.999994"/></g></svg>

<?xml version="1.0" encoding="UTF-8" standalone="no"?>
<svg
   xmlns:dc="http://purl.org/dc/elements/1.1/"
   xmlns:cc="http://creativecommons.org/ns#"
   xmlns:rdf="http://www.w3.org/1999/02/22-rdf-syntax-ns#"
   xmlns:svg="http://www.w3.org/2000/svg"
   xmlns="http://www.w3.org/2000/svg"
   viewBox="0 0 22 22"
   version="1.1"
   width="22"
   height="22"
   id="svg4468">
  <defs
     id="defs4470" />
  <metadata
     id="metadata4473">
    <rdf:RDF>
      <cc:Work
         rdf:about="">
        <dc:format>image/svg+xml</dc:format>
        <dc:type
           rdf:resource="http://purl.org/dc/dcmitype/StillImage" />
        <dc:title></dc:title>
      </cc:Work>
    </rdf:RDF>
  </metadata>
  <g
     transform="translate(-1,-1)"
     id="g4178">
    <path
       style="fill:#4ab3e4"
       d="M 3,3 C 2.446,3 2,3.446 2,4 L 2,5 2,19 22,19 22,5 22,4 C 22,3.446 21.554,3 21,3 L 3,3 Z"
       id="rect4203" />
    <path
       id="rect3328"
       d="M 3,21 C 2.446,21 2,20.554 2,20 l 0,-1 20,0 0,1 c 0,0.554 -0.446,1 -1,1 z"
       style="fill:#4d4d4d" />
    <path
       id="path3345"
       d="M 3,3 C 2.446,3 2,3.446 2,4 l 0,0.5 c 0,-0.554 0.446,-1 1,-1 l 18,0 c 0.554,0 1,0.446 1,1 L 22,4 C 22,3.446 21.554,3 21,3 Z"
       style="opacity:0.1;fill:#ffffff" />
    <path
       id="path4141"
       d="M 2,19.5 2,20 c 0,0.554 0.446,1 1,1 l 18,0 c 0.554,0 1,-0.446 1,-1 l 0,-0.5 c 0,0.554 -0.446,1 -1,1 l -18,0 c -0.554,0 -1,-0.446 -1,-1 z"
       style="opacity:0.3;fill:#000000;fill-opacity:1" />
    <rect
       rx="0.5"
       ry="0.5"
       y="9.5"
       x="8"
       height="6"
       width="8"
       id="rect4229"
       style="opacity:0.2;fill:#000000;fill-opacity:1;stroke:none;stroke-width:4;stroke-linecap:round;stroke-linejoin:round;stroke-miterlimit:4;stroke-dasharray:none;stroke-opacity:1" />
    <path
       style="opacity:1;fill:#ffffff;fill-opacity:1;stroke:none;stroke-width:4;stroke-linecap:round;stroke-linejoin:round;stroke-miterlimit:4;stroke-dasharray:none;stroke-opacity:1"
       d="m 8,10 0,4.5 C 8,14.777 8.223,15 8.5,15 l 7,0 C 15.777,15 16,14.777 16,14.5 L 16,10 8,10 Z"
       id="rect4152" />
    <path
       style="opacity:1;fill:#4d4d4d;fill-opacity:1;stroke:none;stroke-width:4;stroke-linecap:round;stroke-linejoin:round;stroke-miterlimit:4;stroke-dasharray:none;stroke-opacity:1"
       d="m 8.5,9 7,0 C 15.777,9 16,9.223 16,9.5 L 16,10 8,10 8,9.5 C 8,9.223 8.223,9 8.5,9 Z"
       id="rect4154" />
    <g
       id="g4353"
       style="opacity:0.2;fill:#000000;fill-opacity:1"
       transform="translate(-1,-1.5)">
      <rect
         style="opacity:1;fill:#000000;fill-opacity:1;stroke-width:1;stroke-miterlimit:4;stroke-dasharray:none"
         id="rect4345"
         width="2"
         height="2"
         x="4"
         y="6.0000005"
         ry="0.25"
         rx="0.25" />
      <rect
         rx="0.25"
         ry="0.25"
         y="9"
         x="4"
         height="2"
         width="2"
         id="rect4347"
         style="opacity:1;fill:#000000;fill-opacity:1;stroke-width:1;stroke-miterlimit:4;stroke-dasharray:none" />
      <rect
         style="opacity:1;fill:#000000;fill-opacity:1;stroke-width:1;stroke-miterlimit:4;stroke-dasharray:none"
         id="rect4349"
         width="2"
         height="2"
         x="4"
         y="12"
         ry="0.25"
         rx="0.25" />
      <rect
         rx="0.25"
         ry="0.25"
         y="15"
         x="4"
         height="2"
         width="2"
         id="rect4351"
         style="opacity:1;fill:#000000;fill-opacity:1;stroke-width:1;stroke-miterlimit:4;stroke-dasharray:none" />
    </g>
    <rect
       style="opacity:1;fill:#ffffff;fill-opacity:1;stroke-width:1;stroke-miterlimit:4;stroke-dasharray:none"
       id="rect4139"
       width="2"
       height="2"
       x="3"
       y="4.0000019"
       ry="0.25"
       rx="0.25" />
    <rect
       rx="0.25"
       ry="0.25"
       y="6.9999995"
       x="3"
       height="2"
       width="2"
       id="rect4141"
       style="opacity:1;fill:#ffffff;fill-opacity:1;stroke-width:1;stroke-miterlimit:4;stroke-dasharray:none" />
    <rect
       style="opacity:1;fill:#ffffff;fill-opacity:1;stroke-width:1;stroke-miterlimit:4;stroke-dasharray:none"
       id="rect4143"
       width="2"
       height="2"
       x="3"
       y="9.9999943"
       ry="0.25"
       rx="0.25" />
    <rect
       rx="0.25"
       ry="0.25"
       y="12.999994"
       x="3"
       height="2"
       width="2"
       id="rect4145"
       style="opacity:1;fill:#ffffff;fill-opacity:1;stroke-width:1;stroke-miterlimit:4;stroke-dasharray:none" />
  </g>
</svg>
